build/img/icon-calendar-empty-grey.svg

<svg width="16" height="17" viewBox="0 0 16 17" fill="none" xmlns="http://www.w3.org/2000/svg">
<path d="M14 2.07373H12.625V1.13623C12.625 0.82373 12.375 0.51123 12 0.51123C11.6875 0.51123 11.375 0.76123 11.375 1.13623V2.07373H4.5625V1.13623C4.5625 0.82373 4.3125 0.51123 3.9375 0.51123C3.625 0.51123 3.3125 0.76123 3.3125 1.13623V2.07373H2C1.1875 2.07373 0.5 2.69873 0.5 3.57373V14.0112C0.5 14.8237 1.1875 15.5112 2 15.5112H14C14.8125 15.5112 15.5 14.8237 15.5 14.0112V3.57373C15.5 2.69873 14.8125 2.07373 14 2.07373ZM4 4.01123C4.3125 4.01123 4.625 3.76123 4.625 3.38623V3.26123H11.4375V3.38623C11.4375 3.69873 11.6875 4.01123 12.0625 4.01123C12.375 4.01123 12.6875 3.76123 12.6875 3.38623V3.26123H14C14.1875 3.26123 14.375 3.44873 14.375 3.63623V5.07373H1.6875V3.63623C1.6875 3.44873 1.875 3.26123 2.0625 3.26123H3.375V3.38623C3.375 3.69873 3.625 4.01123 4 4.01123ZM14.3125 13.9487C14.3125 14.1362 14.125 14.3237 13.9375 14.3237H2.0625C1.875 14.3237 1.6875 14.1362 1.6875 13.9487V9.38623V6.32373H14.3125V13.9487Z" fill="#B1BAC7"/>
</svg>

<svg width="16" height="17" fill="none" xmlns="http://www.w3.org/2000/svg"><path d="M14 2.074h-1.375v-.938A.626.626 0 0012 .511a.626.626 0 00-.625.625v.938H4.562v-.938a.626.626 0 00-.625-.625.626.626 0 00-.624.625v.938H2c-.813 0-1.5.625-1.5 1.5V14.01c0 .813.688 1.5 1.5 1.5h12c.813 0 1.5-.687 1.5-1.5V3.574c0-.875-.688-1.5-1.5-1.5zM4 4.01c.313 0 .625-.25.625-.625V3.26h6.813v.125a.626.626 0 001.25 0V3.26H14c.188 0 .375.188.375.375v1.438H1.687V3.636c0-.187.188-.375.375-.375h1.313v.125c0 .313.25.625.625.625zm10.313 9.938a.403.403 0 01-.376.375H2.063a.403.403 0 01-.376-.375V6.324h12.626v7.625z" fill="#B1BAC7"/></svg>
